images/icons/generic-phone.svg

<svg fill="none" height="24" viewBox="0 0 24 24" width="24" xmlns="http://www.w3.org/2000/svg" xmlns:xlink="http://www.w3.org/1999/xlink"><clipPath id="a"><path d="m0 0h24v24h-24z"/></clipPath><g clip-path="url(#a)"><path d="m22.6 24c-2.8667 0-5.6611-.6389-8.3833-1.9167-2.7223-1.2777-5.13337-2.9666-7.23337-5.0666s-3.78889-4.5111-5.06666-7.23337c-1.277781-2.72222-1.91667-5.51666-1.91667-8.38333 0-.4.133333-.733333.4-1s.6-.4 1-.4h5.4c.31111 0 .58889.1.83333.3.24445.2.38889.455556.43334.76667l.86666 4.66666c.04445.31111.03889.59445-.01666.85-.05556.25556-.18334.48334-.38334.68334l-3.2 3.26663c.93334 1.6 2.1 3.1 3.5 4.5 1.39997 1.4 2.94447 2.6111 4.63337 3.6334l3.1333-3.1334c.2-.2.4611-.35.7833-.45.3223-.1.6389-.1277.95-.0833l4.6.9333c.3111.0667.5667.2167.7667.45.2.2334.3.5056.3.8167v5.4c0 .4-.1333.7333-.4 1s-.6.4-1 .4z" fill="#fff"/></g></svg>

<svg width="24" height="24" viewBox="0 0 24 24" fill="none" xmlns="http://www.w3.org/2000/svg">
<g clip-path="url(#clip0_1436_669)">
<path d="M22.6 24C19.7333 24 16.9389 23.3611 14.2167 22.0833C11.4944 20.8056 9.08333 19.1167 6.98333 17.0167C4.88333 14.9167 3.19444 12.5056 1.91667 9.78333C0.638889 7.06111 0 4.26667 0 1.4C0 1 0.133333 0.666667 0.4 0.4C0.666667 0.133333 1 0 1.4 0H6.8C7.11111 0 7.38889 0.1 7.63333 0.3C7.87778 0.5 8.02222 0.755556 8.06667 1.06667L8.93333 5.73333C8.97778 6.04444 8.97222 6.32778 8.91667 6.58333C8.86111 6.83889 8.73333 7.06667 8.53333 7.26667L5.33333 10.5333C6.26667 12.1333 7.43333 13.6333 8.83333 15.0333C10.2333 16.4333 11.7778 17.6444 13.4667 18.6667L16.6 15.5333C16.8 15.3333 17.0611 15.1833 17.3833 15.0833C17.7056 14.9833 18.0222 14.9556 18.3333 15L22.9333 15.9333C23.2444 16 23.5 16.15 23.7 16.3833C23.9 16.6167 24 16.8889 24 17.2V22.6C24 23 23.8667 23.3333 23.6 23.6C23.3333 23.8667 23 24 22.6 24Z" fill="white"/>
</g>
<defs>
<clipPath id="clip0_1436_669">
<rect width="24" height="24" fill="white"/>
</clipPath>
</defs>
</svg>
